dist/icons/world.svg

<svg width="16" height="16" viewBox="0 0 16 16" fill="none" xmlns="http://www.w3.org/2000/svg">
<g id="world">
<path id="Shape" fill-rule="evenodd" clip-rule="evenodd" d="M8.33741 0.165901C8.31608 0.163493 8.29478 0.160799 8.27346 0.158103C8.20778 0.149798 8.14199 0.141479 8.07523 0.141479C8.06139 0.141479 8.04771 0.143335 8.03405 0.145186C8.02224 0.146788 8.01045 0.148387 7.9986 0.148778C7.97722 0.148387 7.95595 0.146784 7.93467 0.14518C7.91014 0.14333 7.88558 0.141479 7.86078 0.141479C3.52702 0.141479 0.00112915 3.66765 0.00112915 8.00113C0.00112915 12.3352 3.52702 15.8608 7.86078 15.8608C7.8857 15.8608 7.91038 15.859 7.93499 15.8572C7.95611 15.8557 7.97719 15.8541 7.99832 15.8538C8.0103 15.8542 8.02216 15.8557 8.03401 15.8572C8.04771 15.859 8.06139 15.8608 8.07523 15.8608C8.14549 15.8608 8.21467 15.8519 8.28378 15.8431L8.31513 15.8391L8.33741 15.8364C12.4491 15.5882 15.7204 12.1743 15.7204 8.00113C15.7204 3.82794 12.4491 0.414322 8.33741 0.165901ZM5.50794 1.54387C4.71187 2.46288 4.06513 3.78246 3.71004 5.34092C2.60576 5.22106 1.93937 5.08155 1.67074 5.01699C2.45113 3.40556 3.82695 2.16028 5.50794 1.54387ZM1.29881 5.93236C1.0925 6.58527 0.980217 7.28029 0.980217 8.00113C0.981379 8.84796 1.13996 9.6872 1.44787 10.4761C1.76253 10.4 2.46373 10.2543 3.60197 10.1308C3.48127 9.4546 3.41025 8.74302 3.41025 8.00113C3.41086 7.43445 3.45091 6.86849 3.53011 6.30737C2.20323 6.16001 1.48632 5.98288 1.29881 5.93236ZM1.87566 11.3833C2.23159 11.3075 2.86934 11.1927 3.81194 11.0942C4.18274 12.4663 4.78597 13.6258 5.5085 14.459C3.97127 13.8965 2.68366 12.8066 1.87509 11.3833H1.87566ZM4.70766 11.0103C5.21601 12.9791 6.45615 14.4396 7.29825 14.7921V10.9072C6.45615 10.9173 5.4386 10.9561 4.70766 11.0103ZM7.29825 9.92871C6.45615 9.93937 5.31004 9.9826 4.52857 10.0432C4.42106 9.39481 4.39046 8.70878 4.39046 8.00113C4.39046 7.45095 4.40113 6.91537 4.46766 6.39804C5.2612 6.46092 6.45615 6.50611 7.29825 6.51734V9.92843V9.92871ZM4.60239 5.42794C5.35523 5.48548 6.45615 5.52815 7.29825 5.53853V5.53825V1.21039C6.45615 1.58878 5.07257 3.23987 4.60239 5.42794ZM14.0255 4.96309C13.872 5.01025 13.25 5.18373 12.0197 5.32941C11.742 3.85292 11.241 2.59481 10.5875 1.68646C12.0856 2.33573 13.3039 3.50457 14.0255 4.96281V4.96309ZM11.1121 5.42653C10.651 3.21123 9.26316 1.54527 8.42106 1.1958V5.53881C9.26316 5.52843 10.3714 5.48548 11.1121 5.42653ZM8.42106 6.51734C9.26316 6.50639 10.4435 6.46008 11.2272 6.39495C11.2918 6.91313 11.3081 7.44955 11.3081 8.00113C11.3081 8.70962 11.2828 9.39678 11.1784 10.046C10.4067 9.98373 9.26316 9.93881 8.42106 9.92871V6.51734ZM8.42106 10.9072V14.8067V14.807C9.26316 14.4808 10.51 13.0077 11.0097 11.0125C10.2883 10.9569 9.26316 10.9173 8.42106 10.9072ZM10.5875 14.3164C11.1764 13.4978 11.6455 12.3992 11.9349 11.1088C12.9027 11.2202 13.5124 11.3499 13.8198 11.4274C13.0797 12.7118 11.9466 13.7245 10.5875 14.3164ZM12.1679 6.29671C12.3156 7.57569 12.2957 8.86847 12.1089 10.1423L12.1092 10.142C13.3039 10.2824 13.9834 10.4514 14.2538 10.5303C14.5653 9.74653 14.7422 8.8946 14.7422 8.00113C14.7418 7.11797 14.5702 6.24327 14.2369 5.42541L14.395 5.87173C14.3506 5.88744 13.6808 6.11509 12.1679 6.29671Z" fill="white"/>
</g>
</svg>

<svg width="16" height="16" fill="none" xmlns="http://www.w3.org/2000/svg"><path fill-rule="evenodd" clip-rule="evenodd" d="M8.337.166 8.273.158C8.208.15 8.142.141 8.075.141c-.014 0-.027.002-.04.004a.35.35 0 0 1-.1 0A.98.98 0 0 0 7.86.141C3.527.141 0 3.668 0 8.001c0 4.334 3.526 7.86 7.86 7.86.025 0 .05-.002.074-.004l.063-.003.036.003c.014.002.027.004.041.004.07 0 .14-.01.209-.018l.031-.004.022-.003c4.112-.248 7.383-3.662 7.383-7.835S12.45.414 8.337.166Zm-2.83 1.378c-.795.919-1.442 2.238-1.797 3.797-1.104-.12-1.77-.26-2.04-.324a6.905 6.905 0 0 1 3.838-3.473ZM1.3 5.932a6.833 6.833 0 0 0 .15 4.544c.314-.076 1.015-.222 2.153-.345A12.105 12.105 0 0 1 3.41 8c0-.567.04-1.133.12-1.694-1.327-.147-2.044-.324-2.231-.375Zm.577 5.451c.356-.075.993-.19 1.936-.289.37 1.372.974 2.532 1.696 3.365a6.91 6.91 0 0 1-3.633-3.076Zm2.832-.373c.508 1.97 1.748 3.43 2.59 3.782v-3.885c-.842.01-1.86.05-2.59.103Zm2.59-1.081c-.842.01-1.988.054-2.77.114-.107-.648-.138-1.334-.138-2.042 0-.55.011-1.086.078-1.603.793.063 1.988.108 2.83.12v3.41ZM4.602 5.428c.753.057 1.854.1 2.696.11V1.21c-.842.379-2.225 2.03-2.696 4.218Zm9.423-.465c-.153.047-.775.22-2.005.366-.278-1.476-.779-2.734-1.432-3.643a6.915 6.915 0 0 1 3.438 3.277Zm-2.913.464c-.461-2.216-1.849-3.882-2.69-4.231v4.343c.841-.01 1.95-.054 2.69-.112Zm-2.69 1.09a46.403 46.403 0 0 0 2.805-.122c.065.518.081 1.055.081 1.606 0 .709-.025 1.396-.13 2.045a46.06 46.06 0 0 0-2.757-.117V6.517Zm0 4.39v3.9c.841-.326 2.088-1.8 2.588-3.795a44.378 44.378 0 0 0-2.589-.105Zm2.165 3.41c.59-.82 1.059-1.918 1.348-3.208.968.111 1.577.24 1.885.318a6.919 6.919 0 0 1-3.232 2.89Zm1.58-8.02a14.801 14.801 0 0 1-.058 3.845c1.195.14 1.874.31 2.145.388a6.83 6.83 0 0 0 .488-2.529c0-.883-.172-1.758-.505-2.576l.158.447c-.044.015-.714.243-2.227.425Z" fill="#fff"/></svg>
